X:1
T:Title
%%score { 1 | 2 }
L:1/8
M:3/4
K:Bb
V:1 treble nm="Grand Piano"
V:2 bass 
V:1
 z2 z2[Q:1/4=100] [DF]2 | [Fd]2 [Ec]2 [DB][EG] | [DF]2 [B,D]2 [DF]2 | [EG]3 [FA] [GB][Gc] | %4
[M:2/4] [^Fd]4 |[M:1/4] [^Fc]2 |[M:3/4] [GB]3 [Ac] [GB][EG] | [DF]2 [DB]2 [Fd]2 | %8
 [Fd][Fc] [=EB]2 [B,EG]2 |[M:2/4] [A,F]4 |[M:1/4] [B,DF]2 |[M:3/4] [B,EG][B,EG] [B,EG]2 [C=EG]2 | %12
 [CFA]2 [CFA]2 [D^FA]2 | BB B2 c2 |[M:2/4] d4 |[M:1/4] c2 |[M:3/4] [Fd]2 [Fd]2 [Fd][Ff] | %17
 [Ge]2 G2 G2 | FB d2 c2 |[M:2/4] [B,DB]4 |[M:1/4] F2 |[M:3/4] FB A2 A,2 | CD E2 A2 | ce d2 F2 | %24
[M:2/4] FE D2 |[M:1/4] [DF]2 |[M:3/4] [DB]2 [Fd]2 [_Ad][Af] | [Ge]2 [EG]2 [Gc]2 | %28
 [Fd][Ge] [Fd]2 [Ec]2 |[M:2/4] [DB]4 |] %30
V:2
 z2 z2 [B,,B,]2 | [B,,B,]2 [B,,B,]2 [B,,B,][B,,B,] | [B,,B,]2 [B,,F,]2 [B,,B,]2 | %3
 [E,B,]3 [E,B,] [E,B,][E,G,] |[M:2/4] [D,A,]4 |[M:1/4] [D,A,]2 | %6
[M:3/4] [G,B,]3 [G,B,] [E,B,][E,B,] | [B,,B,]2 [B,,F,]2 [B,,B,]2 | [C,B,][C,A,] [C,G,]2 C,2 | %9
[M:2/4] F,4 |[M:1/4] B,,2 |[M:3/4] E,E, E,2 C,2 | F,2 F,2 D,2 | [G,DG][G,DG] [G,DG]2 [A,CF]2 | %14
[M:2/4] [B,F]4 |[M:1/4][K:bass] [F,A,F]2 |[M:3/4] [B,,B,]2 [B,,B,]2 [B,,B,][D,B,] | %17
 [E,B,]2 [E,B,E]2 [E,B,E]2 | [F,B,D][F,DF] [F,B,F]2 [F,A,E]2 |[M:2/4] B,,4 |[M:1/4] D2 | %21
[M:3/4] DE E2 F,2 | F,B, A,2[K:treble] E2 | EG F2[K:bass] [F,C]2 |[M:2/4] [B,D][F,C] [B,,B,]2 | %25
[M:1/4] [B,,B,]2 |[M:3/4] [B,,B,]2 [B,,B,]2 [B,,B,][D,B,] | [E,B,]2 [E,B,]2 [E,B,]2 | %28
 [F,B,][F,B,] [F,B,]2 [F,A,]2 |[M:2/4] [B,,B,]4 |] %30

